_site/images/Decali_logo.svg

<svg xmlns="http://www.w3.org/2000/svg" width="345" height="41" viewBox="0 0 345 41">
  <g fill="none" fill-rule="evenodd">
    <polygon fill="#FFD300" fill-rule="nonzero" points="344 2.126 344 41 0 41"/>
    <path fill="#313131" d="M26.8713861,8.677 C27.8253861,8.677 28.5673861,9.472 28.5673861,10.479 C28.5673861,11.433 27.8253861,12.175 26.8713861,12.175 L19.7693861,12.175 L19.7693861,38.728 C19.7693861,39.735 18.9743861,40.53 17.9673861,40.53 C17.0133861,40.53 16.2183861,39.735 16.2183861,38.728 L16.2183861,10.479 C16.2183861,9.472 17.0133861,8.677 17.9673861,8.677 L26.8713861,8.677 Z M2.12038608,5.126 C1.11338608,5.126 0.318386078,4.331 0.318386078,3.377 C0.318386078,2.37 1.11338608,1.628 2.12038608,1.628 L26.8713861,1.628 C27.8253861,1.628 28.5673861,2.37 28.5673861,3.377 C28.5673861,4.331 27.8253861,5.126 26.8713861,5.126 L2.12038608,5.126 Z M2.12038608,12.175 C1.11338608,12.175 0.318386078,11.433 0.318386078,10.479 C0.318386078,9.472 1.11338608,8.677 2.12038608,8.677 L10.9183861,8.677 C11.9253861,8.677 12.7203861,9.472 12.7203861,10.479 L12.7203861,38.728 C12.7203861,39.735 11.9253861,40.53 10.9183861,40.53 C9.96438608,40.53 9.11638608,39.735 9.11638608,38.728 L9.11638608,12.175 L2.12038608,12.175 Z M44.9709884,38.781 C44.9709884,39.735 44.1759884,40.53 43.2219884,40.53 C42.2149884,40.53 41.4199884,39.735 41.4199884,38.781 L41.4199884,3.324 C41.4199884,2.37 42.2149884,1.575 43.2219884,1.575 C44.1759884,1.575 44.9709884,2.37 44.9709884,3.324 L44.9709884,38.781 Z M37.8689884,38.781 C37.8689884,39.735 37.0739884,40.53 36.1199884,40.53 C35.1129884,40.53 34.3179884,39.735 34.3179884,38.781 L34.3179884,3.324 C34.3179884,2.37 35.1129884,1.575 36.1199884,1.575 C37.0739884,1.575 37.8689884,2.37 37.8689884,3.324 L37.8689884,38.781 Z M76.9035907,8.677 C77.8575907,8.677 78.5995907,9.472 78.5995907,10.479 C78.5995907,11.433 77.8575907,12.175 76.9035907,12.175 L69.8015907,12.175 L69.8015907,38.728 C69.8015907,39.735 69.0065907,40.53 67.9995907,40.53 C67.0455907,40.53 66.2505907,39.735 66.2505907,38.728 L66.2505907,10.479 C66.2505907,9.472 67.0455907,8.677 67.9995907,8.677 L76.9035907,8.677 Z M52.1525907,5.126 C51.1455907,5.126 50.3505907,4.331 50.3505907,3.377 C50.3505907,2.37 51.1455907,1.628 52.1525907,1.628 L76.9035907,1.628 C77.8575907,1.628 78.5995907,2.37 78.5995907,3.377 C78.5995907,4.331 77.8575907,5.126 76.9035907,5.126 L52.1525907,5.126 Z M52.1525907,12.175 C51.1455907,12.175 50.3505907,11.433 50.3505907,10.479 C50.3505907,9.472 51.1455907,8.677 52.1525907,8.677 L60.9505907,8.677 C61.9575907,8.677 62.7525907,9.472 62.7525907,10.479 L62.7525907,38.728 C62.7525907,39.735 61.9575907,40.53 60.9505907,40.53 C59.9965907,40.53 59.1485907,39.735 59.1485907,38.728 L59.1485907,12.175 L52.1525907,12.175 Z M91.399193,25.955 L91.399193,3.271 C91.399193,2.264 92.194193,1.469 93.148193,1.469 C94.155193,1.469 94.950193,2.264 94.950193,3.271 L94.950193,25.955 C94.950193,31.573 103.165193,31.573 103.165193,25.955 L103.165193,3.271 C103.165193,2.264 103.907193,1.469 104.967193,1.469 C105.921193,1.469 106.716193,2.264 106.716193,3.271 L106.716193,25.955 C106.716193,36.29 91.399193,36.29 91.399193,25.955 Z M113.924193,26.379 C113.924193,45.83 84.138193,45.777 84.138193,26.379 L84.138193,3.271 C84.138193,2.264 84.933193,1.469 85.887193,1.469 C86.894193,1.469 87.689193,2.264 87.689193,3.271 L87.689193,26.379 C87.689193,41.219 110.426193,41.219 110.426193,26.379 L110.426193,3.271 C110.426193,2.264 111.168193,1.469 112.175193,1.469 C113.129193,1.469 113.924193,2.264 113.924193,3.271 L113.924193,26.379 Z M142.199795,2.953 C144.372795,3.695 143.206795,7.087 140.980795,6.292 C136.210795,4.596 130.486795,3.695 126.988795,7.564 C124.126795,10.585 123.384795,16.15 127.200795,19.436 C131.811795,23.57 138.383795,22.669 138.754795,28.287 C138.913795,31.255 136.316795,33.428 133.454795,33.64 C130.009795,33.852 125.716795,33.004 122.218795,30.46 C120.363795,29.135 122.430795,26.273 124.285795,27.598 C128.366795,30.566 135.521795,31.096 135.203795,28.446 C134.991795,25.955 129.744795,26.379 124.815795,22.086 C117.130795,15.355 121.794795,1.946 132.712795,1.416 C135.892795,1.257 138.489795,1.681 142.199795,2.953 Z M121.529795,37.986 C119.515795,36.926 121.158795,33.799 123.225795,34.859 C131.387795,39.205 142.464795,38.092 142.464795,28.287 C142.464795,21.026 132.924795,19.701 130.221795,17.528 C125.981795,14.189 128.207795,4.808 141.404795,10.161 C143.471795,11.009 142.199795,14.295 140.026795,13.394 C132.023795,10.161 130.645795,13.447 132.394795,14.825 C134.355795,16.309 145.962795,18.429 145.962795,28.287 C145.962795,37.986 137.376795,42.544 127.465795,40.159 C125.663795,39.788 123.596795,39.099 121.529795,37.986 Z M179.777,33.481 L176.279,33.481 C175.325,33.481 174.53,32.686 174.53,31.679 C174.53,30.725 175.325,29.93 176.279,29.93 L179.777,29.93 C185.024,29.93 188.363,26.061 188.363,21.026 C188.363,16.044 185.024,12.175 179.777,12.175 L178.028,12.175 L178.028,24.577 C178.028,25.584 177.286,26.379 176.279,26.379 C175.325,26.379 174.53,25.584 174.53,24.577 L174.53,10.426 C174.53,9.419 175.325,8.624 176.279,8.624 L179.777,8.624 C187.038,8.624 191.861,14.083 191.861,21.026 C191.861,28.022 187.038,33.481 179.777,33.481 Z M170.979,38.781 C170.979,39.735 170.184,40.53 169.177,40.53 C168.223,40.53 167.428,39.735 167.428,38.781 L167.428,3.324 C167.428,2.37 168.223,1.575 169.177,1.575 L179.777,1.575 C191.278,1.575 199.281,9.843 199.281,21.026 C199.281,32.262 191.278,40.53 179.777,40.53 L176.226,40.53 C175.272,40.53 174.477,39.735 174.477,38.781 C174.477,37.774 175.272,36.979 176.226,36.979 L179.777,36.979 C189.264,36.979 195.73,30.301 195.73,21.026 C195.73,11.804 189.264,5.126 179.777,5.126 L170.979,5.126 L170.979,38.781 Z M226.496602,8.677 C227.503602,8.677 228.298602,9.419 228.298602,10.426 C228.298602,11.38 227.503602,12.175 226.496602,12.175 L217.009602,12.175 L217.009602,15.726 L223.210602,15.726 C224.217602,15.726 225.012602,16.521 225.012602,17.528 C225.012602,18.482 224.217602,19.277 223.210602,19.277 L215.260602,19.277 C214.253602,19.277 213.458602,18.482 213.458602,17.528 L213.458602,10.426 C213.458602,9.419 214.253602,8.677 215.260602,8.677 L226.496602,8.677 Z M223.210602,22.828 C224.217602,22.828 225.012602,23.623 225.012602,24.577 C225.012602,25.584 224.217602,26.379 223.210602,26.379 L217.009602,26.379 L217.009602,29.877 L226.496602,29.877 C227.503602,29.877 228.298602,30.672 228.298602,31.679 C228.298602,32.633 227.503602,33.428 226.496602,33.428 L215.260602,33.428 C214.253602,33.428 213.458602,32.633 213.458602,31.679 L213.458602,24.577 C213.458602,23.623 214.253602,22.828 215.260602,22.828 L223.210602,22.828 Z M226.496602,36.979 C227.503602,36.979 228.298602,37.774 228.298602,38.781 C228.298602,39.735 227.503602,40.53 226.496602,40.53 L208.158602,40.53 C207.204602,40.53 206.409602,39.735 206.409602,38.781 L206.409602,3.324 C206.409602,2.37 207.204602,1.575 208.158602,1.575 L226.496602,1.575 C227.503602,1.575 228.298602,2.37 228.298602,3.324 C228.298602,4.331 227.503602,5.126 226.496602,5.126 L209.960602,5.126 L209.960602,36.979 L226.496602,36.979 Z M261.503205,2.37 C263.623205,3.271 262.298205,6.504 260.125205,5.656 C258.005205,4.755 255.779205,4.331 253.500205,4.331 C243.960205,4.331 237.176205,11.539 237.176205,20.867 C237.229205,29.188 242.794205,37.297 253.659205,37.297 C255.938205,37.297 258.058205,36.82 260.125205,36.025 C262.298205,35.124 263.623205,38.41 261.503205,39.258 C259.012205,40.265 256.362205,40.795 253.659205,40.795 C240.462205,40.795 233.784205,30.884 233.731205,20.973 C233.678205,10.903 240.303205,0.833 253.659205,0.833 C256.362205,0.833 259.012205,1.363 261.503205,2.37 Z M259.065205,28.658 C261.079205,27.598 262.775205,30.619 260.708205,31.732 C258.429205,33.057 255.938205,33.64 253.500205,33.587 C247.034205,33.481 241.310205,28.711 241.310205,20.867 C241.310205,9.949 252.122205,5.126 260.708205,9.949 C262.775205,11.009 261.079205,14.136 259.065205,12.97 C252.917205,9.578 244.808205,12.599 244.808205,20.867 C244.808205,26.697 248.889205,29.877 253.447205,30.036 C255.302205,30.089 257.263205,29.665 259.065205,28.658 Z M278.913807,29.93 C277.959807,29.93 277.164807,29.135 277.164807,28.128 C277.164807,27.121 277.959807,26.379 278.913807,26.379 L281.457807,26.379 L279.867807,22.457 C279.549807,21.556 279.973807,20.496 280.821807,20.178 C281.775807,19.807 282.782807,20.231 283.153807,21.079 L285.750807,27.439 C285.856807,27.651 285.909807,27.863 285.909807,28.128 C285.909807,29.135 285.061807,29.93 284.054807,29.93 L278.913807,29.93 Z M276.316807,39.099 C275.998807,40 274.991807,40.424 274.037807,40.106 C273.136807,39.682 272.712807,38.675 273.083807,37.774 L274.355807,34.541 C274.673807,33.905 275.362807,33.428 275.998807,33.428 L286.969807,33.428 C287.764807,33.428 288.453807,34.011 288.665807,34.7 L289.937807,37.774 C290.255807,38.675 289.884807,39.682 288.983807,40.106 C288.082807,40.424 287.022807,40.053 286.651807,39.099 L285.803807,37.032 L277.217807,37.032 L276.316807,39.099 Z M268.737807,39.099 C268.313807,40 267.306807,40.424 266.405807,40.106 C265.557807,39.682 265.080807,38.675 265.398807,37.774 L279.867807,1.628 C280.238807,0.674 281.298807,0.25 282.146807,0.621 C282.676807,0.78 282.994807,1.204 283.153807,1.628 L297.569807,37.774 C297.940807,38.675 297.516807,39.682 296.615807,40.106 C295.714807,40.424 294.654807,40 294.283807,39.099 L281.510807,6.928 L268.737807,39.099 Z M325.474409,36.979 C326.481409,36.979 327.223409,37.774 327.223409,38.781 C327.223409,39.735 326.481409,40.53 325.474409,40.53 L304.857409,40.53 C303.850409,40.53 303.055409,39.735 303.055409,38.781 L303.055409,3.324 C303.055409,2.37 303.850409,1.575 304.857409,1.575 C305.811409,1.575 306.606409,2.37 306.606409,3.324 L306.606409,36.979 L325.474409,36.979 Z M310.157409,3.324 C310.157409,2.37 310.952409,1.575 311.906409,1.575 C312.913409,1.575 313.708409,2.37 313.708409,3.324 L313.708409,29.877 L325.474409,29.877 C326.481409,29.877 327.223409,30.672 327.223409,31.679 C327.223409,32.633 326.481409,33.428 325.474409,33.428 L311.906409,33.428 C310.952409,33.428 310.157409,32.633 310.157409,31.679 L310.157409,3.324 Z M344.422012,38.781 C344.422012,39.735 343.627012,40.53 342.673012,40.53 C341.666012,40.53 340.871012,39.735 340.871012,38.781 L340.871012,3.324 C340.871012,2.37 341.666012,1.575 342.673012,1.575 C343.627012,1.575 344.422012,2.37 344.422012,3.324 L344.422012,38.781 Z M337.320012,38.781 C337.320012,39.735 336.525012,40.53 335.571012,40.53 C334.564012,40.53 333.769012,39.735 333.769012,38.781 L333.769012,3.324 C333.769012,2.37 334.564012,1.575 335.571012,1.575 C336.525012,1.575 337.320012,2.37 337.320012,3.324 L337.320012,38.781 Z"/>
  </g>
</svg>

<svg height="41" viewBox="0 0 345 41" width="345" xmlns="http://www.w3.org/2000/svg"><g fill="none" fill-rule="evenodd"><path d="m344 2.126v38.874h-344z" fill="#ffd300" fill-rule="nonzero"/><path d="m26.8713861 8.677c.954 0 1.696.795 1.696 1.802 0 .954-.742 1.696-1.696 1.696h-7.102v26.553c0 1.007-.795 1.802-1.802 1.802-.954 0-1.749-.795-1.749-1.802v-28.249c0-1.007.795-1.802 1.749-1.802zm-24.75100002-3.551c-1.007 0-1.802-.795-1.802-1.749 0-1.007.795-1.749 1.802-1.749h24.75100002c.954 0 1.696.742 1.696 1.749 0 .954-.742 1.749-1.696 1.749zm0 7.049c-1.007 0-1.802-.742-1.802-1.696 0-1.007.795-1.802 1.802-1.802h8.79800002c1.007 0 1.802.795 1.802 1.802v28.249c0 1.007-.795 1.802-1.802 1.802-.95400002 0-1.80200002-.795-1.80200002-1.802v-26.553zm42.85060232 26.606c0 .954-.795 1.749-1.749 1.749-1.007 0-1.802-.795-1.802-1.749v-35.457c0-.954.795-1.749 1.802-1.749.954 0 1.749.795 1.749 1.749zm-7.102 0c0 .954-.795 1.749-1.749 1.749-1.007 0-1.802-.795-1.802-1.749v-35.457c0-.954.795-1.749 1.802-1.749.954 0 1.749.795 1.749 1.749zm39.0346023-30.104c.954 0 1.696.795 1.696 1.802 0 .954-.742 1.696-1.696 1.696h-7.102v26.553c0 1.007-.795 1.802-1.802 1.802-.954 0-1.749-.795-1.749-1.802v-28.249c0-1.007.795-1.802 1.749-1.802zm-24.751-3.551c-1.007 0-1.802-.795-1.802-1.749 0-1.007.795-1.749 1.802-1.749h24.751c.954 0 1.696.742 1.696 1.749 0 .954-.742 1.749-1.696 1.749zm0 7.049c-1.007 0-1.802-.742-1.802-1.696 0-1.007.795-1.802 1.802-1.802h8.798c1.007 0 1.802.795 1.802 1.802v28.249c0 1.007-.795 1.802-1.802 1.802-.954 0-1.802-.795-1.802-1.802v-26.553zm39.2466023 13.78v-22.684c0-1.007.795-1.802 1.749-1.802 1.007 0 1.802.795 1.802 1.802v22.684c0 5.618 8.215 5.618 8.215 0v-22.684c0-1.007.742-1.802 1.802-1.802.954 0 1.749.795 1.749 1.802v22.684c0 10.335-15.317 10.335-15.317 0zm22.525.424c0 19.451-29.786 19.398-29.786 0v-23.108c0-1.007.795-1.802 1.749-1.802 1.007 0 1.802.795 1.802 1.802v23.108c0 14.84 22.737 14.84 22.737 0v-23.108c0-1.007.742-1.802 1.749-1.802.954 0 1.749.795 1.749 1.802zm28.275602-23.426c2.173.742 1.007 4.134-1.219 3.339-4.77-1.696-10.494-2.597-13.992 1.272-2.862 3.021-3.604 8.586.212 11.872 4.611 4.134 11.183 3.233 11.554 8.851.159 2.968-2.438 5.141-5.3 5.353-3.445.212-7.738-.636-11.236-3.18-1.855-1.325.212-4.187 2.067-2.862 4.081 2.968 11.236 3.498 10.918.848-.212-2.491-5.459-2.067-10.388-6.36-7.685-6.731-3.021-20.14 7.897-20.67 3.18-.159 5.777.265 9.487 1.537zm-20.67 35.033c-2.014-1.06-.371-4.187 1.696-3.127 8.162 4.346 19.239 3.233 19.239-6.572 0-7.261-9.54-8.586-12.243-10.759-4.24-3.339-2.014-12.72 11.183-7.367 2.067.848.795 4.134-1.378 3.233-8.003-3.233-9.381.053-7.632 1.431 1.961 1.484 13.568 3.604 13.568 13.462 0 9.699-8.586 14.257-18.497 11.872-1.802-.371-3.869-1.06-5.936-2.173zm58.247205-4.505h-3.498c-.954 0-1.749-.795-1.749-1.802 0-.954.795-1.749 1.749-1.749h3.498c5.247 0 8.586-3.869 8.586-8.904 0-4.982-3.339-8.851-8.586-8.851h-1.749v12.402c0 1.007-.742 1.802-1.749 1.802-.954 0-1.749-.795-1.749-1.802v-14.151c0-1.007.795-1.802 1.749-1.802h3.498c7.261 0 12.084 5.459 12.084 12.402 0 6.996-4.823 12.455-12.084 12.455zm-8.798 5.3c0 .954-.795 1.749-1.802 1.749-.954 0-1.749-.795-1.749-1.749v-35.457c0-.954.795-1.749 1.749-1.749h10.6c11.501 0 19.504 8.268 19.504 19.451 0 11.236-8.003 19.504-19.504 19.504h-3.551c-.954 0-1.749-.795-1.749-1.749 0-1.007.795-1.802 1.749-1.802h3.551c9.487 0 15.953-6.678 15.953-15.953 0-9.222-6.466-15.9-15.953-15.9h-8.798zm55.517602-30.104c1.007 0 1.802.742 1.802 1.749 0 .954-.795 1.749-1.802 1.749h-9.487v3.551h6.201c1.007 0 1.802.795 1.802 1.802 0 .954-.795 1.749-1.802 1.749h-7.95c-1.007 0-1.802-.795-1.802-1.749v-7.102c0-1.007.795-1.749 1.802-1.749zm-3.286 14.151c1.007 0 1.802.795 1.802 1.749 0 1.007-.795 1.802-1.802 1.802h-6.201v3.498h9.487c1.007 0 1.802.795 1.802 1.802 0 .954-.795 1.749-1.802 1.749h-11.236c-1.007 0-1.802-.795-1.802-1.749v-7.102c0-.954.795-1.749 1.802-1.749zm3.286 14.151c1.007 0 1.802.795 1.802 1.802 0 .954-.795 1.749-1.802 1.749h-18.338c-.954 0-1.749-.795-1.749-1.749v-35.457c0-.954.795-1.749 1.749-1.749h18.338c1.007 0 1.802.795 1.802 1.749 0 1.007-.795 1.802-1.802 1.802h-16.536v31.853zm35.006603-34.609c2.12.901.795 4.134-1.378 3.286-2.12-.901-4.346-1.325-6.625-1.325-9.54 0-16.324 7.208-16.324 16.536.053 8.321 5.618 16.43 16.483 16.43 2.279 0 4.399-.477 6.466-1.272 2.173-.901 3.498 2.385 1.378 3.233-2.491 1.007-5.141 1.537-7.844 1.537-13.197 0-19.875-9.911-19.928-19.822-.053-10.07 6.572-20.14 19.928-20.14 2.703 0 5.353.53 7.844 1.537zm-2.438 26.288c2.014-1.06 3.71 1.961 1.643 3.074-2.279 1.325-4.77 1.908-7.208 1.855-6.466-.106-12.19-4.876-12.19-12.72 0-10.918 10.812-15.741 19.398-10.918 2.067 1.06.371 4.187-1.643 3.021-6.148-3.392-14.257-.371-14.257 7.897 0 5.83 4.081 9.01 8.639 9.169 1.855.053 3.816-.371 5.618-1.378zm19.848602 1.272c-.954 0-1.749-.795-1.749-1.802s.795-1.749 1.749-1.749h2.544l-1.59-3.922c-.318-.901.106-1.961.954-2.279.954-.371 1.961.053 2.332.901l2.597 6.36c.106.212.159.424.159.689 0 1.007-.848 1.802-1.855 1.802zm-2.597 9.169c-.318.901-1.325 1.325-2.279 1.007-.901-.424-1.325-1.431-.954-2.332l1.272-3.233c.318-.636 1.007-1.113 1.643-1.113h10.971c.795 0 1.484.583 1.696 1.272l1.272 3.074c.318.901-.053 1.908-.954 2.332-.901.318-1.961-.053-2.332-1.007l-.848-2.067h-8.586zm-7.579 0c-.424.901-1.431 1.325-2.332 1.007-.848-.424-1.325-1.431-1.007-2.332l14.469-36.146c.371-.954 1.431-1.378 2.279-1.007.53.159.848.583 1.007 1.007l14.416 36.146c.371.901-.053 1.908-.954 2.332-.901.318-1.961-.106-2.332-1.007l-12.773-32.171zm56.736602-2.12c1.007 0 1.749.795 1.749 1.802 0 .954-.742 1.749-1.749 1.749h-20.617c-1.007 0-1.802-.795-1.802-1.749v-35.457c0-.954.795-1.749 1.802-1.749.954 0 1.749.795 1.749 1.749v33.655zm-15.317-33.655c0-.954.795-1.749 1.749-1.749 1.007 0 1.802.795 1.802 1.749v26.553h11.766c1.007 0 1.749.795 1.749 1.802 0 .954-.742 1.749-1.749 1.749h-13.568c-.954 0-1.749-.795-1.749-1.749zm34.264603 35.457c0 .954-.795 1.749-1.749 1.749-1.007 0-1.802-.795-1.802-1.749v-35.457c0-.954.795-1.749 1.802-1.749.954 0 1.749.795 1.749 1.749zm-7.102 0c0 .954-.795 1.749-1.749 1.749-1.007 0-1.802-.795-1.802-1.749v-35.457c0-.954.795-1.749 1.802-1.749.954 0 1.749.795 1.749 1.749z" fill="#313131"/></g></svg>
